icons/svgs/user-shield-outline.svg

<svg width="25" height="24" viewBox="0 0 25 24" fill="none" xmlns="http://www.w3.org/2000/svg">
<path d="M8.75 10.125C9.84375 10.125 10.8594 9.53906 11.4453 8.5625C11.9922 7.625 11.9922 6.41406 11.4453 5.4375C10.8594 4.5 9.84375 3.875 8.75 3.875C7.61719 3.875 6.60156 4.5 6.01562 5.4375C5.46875 6.41406 5.46875 7.625 6.01562 8.5625C6.60156 9.53906 7.61719 10.125 8.75 10.125ZM8.75 2C10.5078 2 12.1484 2.97656 13.0469 4.5C13.9453 6.0625 13.9453 7.97656 13.0469 9.5C12.1484 11.0625 10.5078 12 8.75 12C6.95312 12 5.3125 11.0625 4.41406 9.5C3.51562 7.97656 3.51562 6.0625 4.41406 4.5C5.3125 2.97656 6.95312 2 8.75 2ZM1.91406 20.125H14.6094C15.1172 20.8281 15.7812 21.4531 16.5234 22C16.4453 22 16.4062 22 16.3281 22H1.13281C0.507812 22 0 21.4922 0 20.8672C0 17 3.08594 13.875 6.95312 13.875H8.75H10.5078C11.2109 13.875 11.875 13.9922 12.5 14.1875C12.5391 14.8125 12.6172 15.5547 12.8125 16.3359C12.1484 15.9844 11.3281 15.75 10.5078 15.75H6.95312C4.375 15.75 2.26562 17.6641 1.91406 20.125ZM19.0234 10.8281C19.2188 10.75 19.4922 10.75 19.6875 10.8281L24.375 12.7031C24.7656 12.8594 25 13.2109 25 13.5625C25 16.0625 23.9844 20.1641 19.7266 21.9609C19.4922 22.0391 19.2188 22.0391 18.9844 21.9609C14.7266 20.1641 13.75 16.0625 13.75 13.5625C13.75 13.2109 13.9844 12.8594 14.3359 12.7031L19.0234 10.8281ZM23.0859 14.1875L19.375 12.7031V20.0469C22.0312 18.7578 22.9297 16.1797 23.0859 14.1875Z" fill="black"/>
</svg>

<svg xmlns="http://www.w3.org/2000/svg" width="24" height="24" fill="currentColor" class="icon-user-shield-outline" viewBox="0 0 24 24">
  <mask id="a" width="25" height="21" x="0" y="2" maskUnits="userSpaceOnUse" style="mask-type:alpha">
    <path d="M8.75 10.125c1.094 0 2.11-.586 2.695-1.562.547-.938.547-2.149 0-3.126C10.86 4.5 9.844 3.875 8.75 3.875c-1.133 0-2.148.625-2.734 1.563-.547.976-.547 2.187 0 3.125a3.16 3.16 0 0 0 2.734 1.562M8.75 2c1.758 0 3.398.977 4.297 2.5.898 1.563.898 3.477 0 5A4.96 4.96 0 0 1 8.75 12a4.97 4.97 0 0 1-4.336-2.5c-.898-1.523-.898-3.437 0-5C5.313 2.977 6.954 2 8.75 2M1.914 20.125H14.61c.508.703 1.172 1.328 1.914 1.875H1.133A1.134 1.134 0 0 1 0 20.867C0 17 3.086 13.875 6.953 13.875h3.555c.703 0 1.367.117 1.992.313.04.624.117 1.367.313 2.148a5.04 5.04 0 0 0-2.305-.586H6.953c-2.578 0-4.687 1.914-5.039 4.375m17.11-9.297a.97.97 0 0 1 .663 0l4.688 1.875c.39.156.625.508.625.86 0 2.5-1.016 6.601-5.273 8.398a1.2 1.2 0 0 1-.743 0c-4.257-1.797-5.234-5.898-5.234-8.398 0-.352.234-.704.586-.86zm4.062 3.36-3.711-1.485v7.344c2.656-1.29 3.555-3.867 3.71-5.86"/>
  </mask>
  <g mask="url(#a)">
    <path d="M0 0h24v24H0z"/>
  </g>
</svg>
